X: 63
T: No_161_Scalp_Song.krn
N: Derived from No_161_Scalp_Song.krn
%%abc-version 2.0
%%abcx-abcm2ps-target-version 5.9.1 (29 Sep 2008)
%%abc-creator hum2abc beta
%%abcx-conversion-date 2019/03/15 08:29:13
%%humdrum-veritas 3706333516
%%humdrum-veritas-data 961036480
%%linebreak <none>
%%barnumbers 0
L: 1/8
M: 3/4
K: Ab clef=bass
[K:clef=bass][M:3/4]C-C3//B,// B,B, A,A, | 
C-C3//B,// CC B,B, | 
C-C3//B,// B,B, A,A, | 
B,-B,3//A,//B,2A,B, | 
B,-B,3//A,// A,//F,3//-F, C,C, | 
A,3/F,/ A,A, F,F, ||  
[M:2/4]A,3/F,/ F,F, | 
C,C, C,C, | 
C,2A,A, ||  
[M:3/4]B,-B,3//A,// B,B, A,B, | 
B,-B,3//A,// A,//F,3//F, C,C, | 
A,-A,3//F,// A,A, F,F, ||  
[M:2/4]A,-A,3//F,// F,F, | 
C,C, C,C, | 
C,4 |]  



